X:7835
T:James Cameron March
R:March
C:Jerry Holland
O:20th Century Cape Breton
S:Tune ofthe Month,April,1998
D:Fiddler's Choice, Odyssey Records,1999, Cape Breton Fiddling Today, Fiddler Magazine video
A:<http://www.jerryholland.com>
N:Contacts ...
N:..... Jerry Holland <jerry@cranfordpub.com>
N:Tune books, related recordings
N:..... Cranford Publications <http://www.cranfordpub.com>
H:Copyrights - www.fiddlesticksmusic.com (SOCAN)
Z:Paul Stewart Cranford 
Q:244
L:1/8
M:C|
K:G
DE|G2GFG2gf|e2d<eB2ge|d2ge d>BA<G|B2A2A2DE|!
G2GFG2gf|e2d<eB2ge|d2ge d>BA<c|B2G2G2:|!
|:zB|c>cc<de2d2|e>dd<eB2ge|d2ge d>BA<G|1B2A2A2zB|!
c>cc<de2d2|e>dd<eB2ge|d2ge d>BA<c|B2G2G2:|!
[2B2A2A2DE|G2GFG2gf|e2d<eB2ge|d2ge d>BA<c|B2G2G2|]!
